X: 100
T: Road to Fort Coulonge
C: Reg Hill
M:6/8
R:jig
L:1/8
K:G
D|"G"DEF GAB|def g2e|ded cBA|"D7"F3 F2E|
"D7"DEF AB^c|de=f ^f2e|ded cBA|"G"B3 B2D|
"G"DEF GAB|def g2e|"G7"ded dcB|"C"c3 c2B|
"C"ceg gec|"G"Bdg gdB|"D7"ABA DEF|"G"G3-"Fine"G2 A|]
K:D
"D"DCD FDF|AFA dAd|Adf fed|"A7"c3 c2B|
"A7"ABA GAG|EGE C2B,|A,CE GFE|"D"F3 F2E|
"D"DCD FDF|AFA dAd|Adf fed|"G"B3 B2 A|
Bdg gdB|"D"Adf feA|"A7"cec ABc|"D"d3 "DC al Fine"d2 z||
